icons/image-add.svg

<svg xmlns="http://www.w3.org/2000/svg" viewBox="0 0 24 24" fill="currentColor">
  <path d="M7 3.75C5.21421 3.75 3.75 5.21421 3.75 7v6.5214l4.40374-3.2242c1.10874-.82869 2.62316-.68103 3.57656.2724l2.6663 2.6663.7146-.6046c1.1332-.9871 2.6556-.7944 3.6827.1044l.0079.0069 1.4482 1.3409V9c0-.41421.3358-.75.75-.75s.75.33579.75.75v8c0 2.6142-2.1358 4.75-4.75 4.75H7c-2.61421 0-4.75-2.1358-4.75-4.75V7c0-2.61421 2.13579-4.75 4.75-4.75h5c.4142 0 .75.33579.75.75s-.3358.75-.75.75H7Zm13.25 12.3778-2.4512-2.2696c-.5698-.4937-1.2406-.4999-1.7049-.0937l-.0094.0082-.6235.5276 4.3405 4.3406c.2848-.4825.4485-1.0437.4485-1.6409v-.8722ZM3.75 17v-1.6196l5.29305-3.8753.00003.0001L9.05 11.5c.49093-.3682 1.1742-.3151 1.6197.1303l8.0946 8.0947c-.5091.3317-1.1155.525-1.7643.525H7c-1.78579 0-3.25-1.4642-3.25-3.25ZM16.4 3.25c.4142 0 .75.33579.75.75v1.6499h1.75c.4142 0 .75.33579.75.75 0 .41422-.3358.75-.75.75h-1.75v1.75009c0 .41422-.3358.75-.75.75s-.75-.33578-.75-.75V7.1499H14c-.4142 0-.75-.33578-.75-.75 0-.41421.3358-.75.75-.75h1.65V4c0-.41421.3358-.75.75-.75Z"/>
</svg>

<svg width="24" height="24" viewBox="0 0 24 24" fill="none" xmlns="http://www.w3.org/2000/svg">
<path fill-rule="evenodd" clip-rule="evenodd" d="M7 3.75C5.21421 3.75 3.75 5.21421 3.75 7V13.5214L8.15374 10.2972C9.26248 9.46851 10.7769 9.61617 11.7303 10.5696L14.3966 13.2359L15.1112 12.6313C16.2444 11.6442 17.7668 11.8369 18.7939 12.7357L18.8018 12.7426L20.25 14.0835V9C20.25 8.58579 20.5858 8.25 21 8.25C21.4142 8.25 21.75 8.58579 21.75 9V17C21.75 19.6142 19.6142 21.75 17 21.75H7C4.38579 21.75 2.25 19.6142 2.25 17V7C2.25 4.38579 4.38579 2.25 7 2.25H12C12.4142 2.25 12.75 2.58579 12.75 3C12.75 3.41421 12.4142 3.75 12 3.75H7ZM20.25 16.1278L17.7988 13.8582C17.229 13.3645 16.5582 13.3583 16.0939 13.7645L16.0845 13.7727L15.461 14.3003L19.8015 18.6409C20.0863 18.1584 20.25 17.5972 20.25 17V16.1278ZM3.75 17V15.3804L9.04305 11.5051L9.04308 11.5052L9.05 11.5C9.54093 11.1318 10.2242 11.1849 10.6697 11.6303L18.7643 19.725C18.2552 20.0567 17.6488 20.25 17 20.25H7C5.21421 20.25 3.75 18.7858 3.75 17ZM16.4 3.25C16.8142 3.25 17.15 3.58579 17.15 4V5.6499H18.9C19.3142 5.6499 19.65 5.98569 19.65 6.3999C19.65 6.81412 19.3142 7.1499 18.9 7.1499H17.15V8.89999C17.15 9.31421 16.8142 9.64999 16.4 9.64999C15.9858 9.64999 15.65 9.31421 15.65 8.89999V7.1499H14C13.5858 7.1499 13.25 6.81412 13.25 6.3999C13.25 5.98569 13.5858 5.6499 14 5.6499H15.65V4C15.65 3.58579 15.9858 3.25 16.4 3.25Z" fill="black"/>
</svg>
